X: 26241
T: Meelick Team, The
R: jig
M: 6/8
K: Eminor
(e{fa}fe) dBA|{d}BAG EDB,|DEG Eed|{Bd}BAG ABd|
eBB dBA|BAG {EG}EDB,|DEG Eed|BAF (E{G}E{D}E)|
e{fa}fe dBA|{d}BAG EDB,|(A,{C}A,{G,}A,) A,B,D|(B,{D}B,{A,}B,) DFB|
eBB dBA|BAG EDB,|DEG Eed|{Bd}BAF EGB|
|:e2f {a}gfe|be(a {ga}g)ed|Beg bea|ged e2f|
gag edB|AFD FGA|({e}d{c}d)(e {fa}fe)d|BAF (E{G}E{D}E):|

